X:91
M:4/4
L:1/4
K:G
B A B d | c A G F | G E D B | A G A2 | B A B d | c A G F | G E D B | A3/2 G/ G2 | A3/2 B/ B A | A d ^c B | A3/2 B/ A d | d e d2 | B A B d | c A G F | !sintro!G E D B | A3/2 G/ G2 !eintro!|]
